brandFactory_export/3.Masa/Chip_Equipo_3Masa.svg

<?xml version="1.0" encoding="UTF-8"?>
<svg width="24px" height="24px" viewBox="0 0 24 24" version="1.1" xmlns="http://www.w3.org/2000/svg" xmlns:xlink="http://www.w3.org/1999/xlink">
    <title>3.Masa/Chip_Equipo_3Masa</title>
    <g id="Symbols" stroke="none" stroke-width="1" fill="none" fill-rule="evenodd">
        <g id="3.Masa/Chip_Equipo_3Masa" fill="#5CB615" fill-rule="nonzero">
            <path d="M14.5378151,1.24344979e-13 C15.8655462,1.24344979e-13 16.8302521,0.32605042 17.4823529,0.998319328 C18.1243697,1.65714286 18.4369748,2.62184874 18.4369748,3.94957983 L18.4369748,3.94957983 L18.4369748,5.41512605 L20.4840336,5.41512605 C21.3142857,5.41512605 21.8521008,5.95294118 21.8554622,6.78655462 L21.8554622,6.78655462 L21.8554622,15.2033613 C21.8554622,16.0369748 21.3176471,16.5747899 20.4840336,16.5747899 L20.4840336,16.5747899 L18.4369748,16.5747899 L18.4369748,19.6806723 C18.4369748,22.3394958 17.1630252,23.6302521 14.5378151,23.6302521 L14.5378151,23.6302521 L5.91596639,23.6302521 C3.2907563,23.6302521 2.01680672,22.3394958 2.01680672,19.6806723 L2.01680672,19.6806723 L2.01680672,3.94957983 C2.01680672,1.32773109 3.32773109,1.24344979e-13 5.91596639,1.24344979e-13 L5.91596639,1.24344979e-13 Z M10.2151261,18.3697479 C9.51932773,18.3697479 9.06890756,18.7327731 9.06890756,19.5193277 C9.06890756,19.8957983 9.17310924,20.1781513 9.35798319,20.3663866 C9.55966387,20.5714286 9.85210084,20.6689076 10.2151261,20.6689076 C10.5781513,20.6689076 10.8705882,20.5714286 11.0722689,20.3663866 C11.2537815,20.1781513 11.3579832,19.8991597 11.3613445,19.5193277 C11.3613445,18.7361345 10.9109244,18.3697479 10.2151261,18.3697479 Z M20.4806723,6.42016807 L16.9243697,6.42016807 L14.6386555,8.13109244 L14.6386555,15.2033613 C14.6386555,15.4857143 14.7193277,15.5663866 15.0016807,15.5663866 L15.0016807,15.5663866 L20.4806723,15.5663866 C20.7630252,15.5663866 20.8436975,15.4857143 20.8436975,15.2033613 L20.8436975,15.2033613 L20.8436975,6.78319328 C20.8436975,6.50084034 20.7630252,6.42016807 20.4806723,6.42016807 L20.4806723,6.42016807 Z M19.7815126,9.82857143 C19.9663866,9.82857143 20.1176471,9.97983193 20.1176471,10.1647059 L20.1176471,10.1647059 L20.1176471,14.4168067 C20.1176471,14.6016807 19.9663866,14.7529412 19.7815126,14.7529412 L19.7815126,14.7529412 L15.7310924,14.7529412 C15.5462185,14.7529412 15.394958,14.6016807 15.394958,14.4168067 L15.394958,14.4168067 L15.394958,10.1647059 C15.394958,9.97983193 15.5462185,9.82857143 15.7310924,9.82857143 L15.7310924,9.82857143 Z M18.0907563,13.405042 L17.4151261,13.405042 L17.4151261,14.0806723 L18.0907563,14.0806723 L18.0907563,13.405042 Z M16.7428571,13.405042 L16.0705882,13.405042 L16.0705882,14.0806723 L16.7428571,14.0806723 L16.7428571,13.405042 Z M19.4453782,13.405042 L18.7630252,13.405042 L18.7630252,14.0806723 L19.4453782,14.0806723 L19.4453782,13.405042 Z M19.4453782,11.8487395 L16.0705882,11.8487395 L16.0705882,12.7327731 L19.4453782,12.7327731 L19.4453782,11.8487395 Z M18.0907563,10.5008403 L17.4151261,10.5008403 L17.4151261,11.1764706 L18.0907563,11.1764706 L18.0907563,10.5008403 Z M19.4453782,10.5008403 L18.7630252,10.5008403 L18.7630252,11.1764706 L19.4420168,11.1764706 L19.4453782,10.5008403 Z M16.7428571,10.5008403 L16.0705882,10.5008403 L16.0705882,11.1764706 L16.7428571,11.1764706 L16.7428571,10.5008403 Z" id="Chip_Equipo_3Masa"></path>
        </g>
    </g>
</svg>

<svg width="24" height="24" viewBox="0 0 24 24" xmlns="http://www.w3.org/2000/svg"><path d="M14.538 0c1.328 0 2.292.326 2.944.998.642.66.955 1.624.955 2.952v1.465h2.047c.83 0 1.368.538 1.371 1.372v8.416c0 .834-.537 1.372-1.371 1.372h-2.047v3.106c0 2.658-1.274 3.95-3.9 3.95H5.917c-2.625 0-3.9-1.292-3.9-3.95V3.95c0-2.622 1.312-3.95 3.9-3.95zm-4.323 18.37c-.696 0-1.146.363-1.146 1.15 0 .376.104.658.289.846.202.205.494.303.857.303s.656-.098.857-.303c.182-.188.286-.467.29-.847 0-.783-.451-1.15-1.147-1.15zM20.481 6.42h-3.557L14.64 8.131v7.072c0 .283.08.363.363.363h5.479c.282 0 .363-.08.363-.363v-8.42c0-.282-.081-.363-.363-.363zm-.7 3.409c.185 0 .337.15.337.336v4.252a.337.337 0 01-.336.336h-4.05a.337.337 0 01-.337-.336v-4.252c0-.185.151-.336.336-.336zm-1.69 3.576h-.676v.676h.676v-.676zm-1.348 0h-.672v.676h.672v-.676zm2.702 0h-.682v.676h.682v-.676zm0-1.556h-3.374v.884h3.374v-.884zM18.091 10.5h-.676v.675h.676v-.675zm1.354 0h-.682v.675h.679l.003-.675zm-2.702 0h-.672v.675h.672v-.675z" fill="#5CB615" fill-rule="nonzero"/></svg>
